assets/symbols/mulberry/flag_aruba.svg

<svg height="850.394" viewBox="0 0 850.394 850.394" width="850.394" xmlns="http://www.w3.org/2000/svg"><path d="m162.61 450v335.38h-39.49l-1.12-670.61c5.8 2.59 12.62 4.08 19.92 4.08 7.62 0 14.73-1.63 20.69-4.43z" fill="#c8c8c8"/><path d="m748.18 470.7v49.47h-579.62l-.45-49.47z" fill="#a8d7f4"/><path d="m748.18 450v20.7h-580.07l-.19-20.7h580.08z" fill="#fbed24"/><path d="m748.18 424v26h-580.26l-.24-26h580.32z" fill="#a8d7f4"/><path d="m748.18 398v26h-580.5l-.24-26z" fill="#fbed24"/><path d="m748.18 177.46v220.54h-580.74l-2.37-257.66h583.11zm-472.29 82.43 34.53-18.89-34.53-18.89-18.89-34.53-18.89 34.53-34.53 18.89 34.53 18.89 18.89 34.53z" fill="#a8d7f4"/><path d="m310.42 241-34.53 18.89-18.89 34.53-18.89-34.53-34.53-18.89 34.53-18.89 18.89-34.53 18.89 34.53z" fill="#ed1e29"/><path d="m162.61 114.42c-5.96 2.8-13.07 4.43-20.69 4.43-7.3 0-14.12-1.49-19.92-4.08-10.99-4.89-18.33-13.72-18.33-23.8 0-15.4 17.13-27.88 38.25-27.88 21.13 0 38.26 12.48 38.26 27.88 0 9.84-7 18.49-17.57 23.45z" fill="#c8c8c8"/><g fill="none"><g><g stroke="#231f20"><path d="m165.07 140.34h583.11v379.83h-579.62m-46.56-405.4c-10.99-4.89-18.33-13.72-18.33-23.8 0-15.4 17.13-27.88 38.25-27.88 21.13 0 38.26 12.48 38.26 27.88 0 9.84-7 18.49-17.57 23.45-5.96 2.8-13.07 4.43-20.69 4.43-7.3 0-14.12-1.49-19.92-4.08z" stroke-width="21"/><path d="m122 114v.77l1.12 670.61m39.49-672.78v672.78" stroke-width="21"/><path d="m744.76 179.39 3.42-1.93 2.01-1.14" stroke-width="14"/><path d="m167.88 470.7h585.87m-593.75-20.7h588m-586-26h586m-586-26h590" stroke-width="7"/></g><path d="m257 187.58 18.89 34.53 34.53 18.89-34.53 18.89-18.89 34.53-18.89-34.53-34.53-18.89 34.53-18.89z" stroke="#fff" stroke-width="8.056"/></g><path d="m0 0h850.394v850.394h-850.394z"/></g></svg>

<svg xmlns="http://www.w3.org/2000/svg" width="850.394" height="850.394" viewBox="0 0 850.394 850.394" overflow="visible"><path d="M162.61 450v335.38h-39.49L122 114.77c5.8 2.59 12.62 4.08 19.92 4.08 7.62 0 14.73-1.63 20.69-4.43V450z" fill="#c8c8c8"/><path fill="#a8d7f4" d="M748.18 470.7v49.47H168.56l-.45-49.47z"/><path fill="#fbed24" d="M748.18 450v20.7H168.11l-.19-20.7H748z"/><path fill="#a8d7f4" d="M748.18 424v26H167.92l-.24-26H748z"/><path fill="#fbed24" d="M748.18 398v26h-580.5l-.24-26z"/><path d="M748.18 177.46V398H167.44l-2.37-257.66h583.11v37.12zm-472.29 82.43L310.42 241l-34.53-18.89L257 187.58l-18.89 34.53L203.58 241l34.53 18.89L257 294.42l18.89-34.53z" fill="#a8d7f4"/><path fill="#ed1e29" d="M310.42 241l-34.53 18.89L257 294.42l-18.89-34.53L203.58 241l34.53-18.89L257 187.58l18.89 34.53z"/><path d="M162.61 114.42c-5.96 2.8-13.07 4.43-20.69 4.43-7.3 0-14.12-1.49-19.92-4.08-10.99-4.89-18.33-13.72-18.33-23.8 0-15.4 17.13-27.88 38.25-27.88 21.13 0 38.26 12.48 38.26 27.88 0 9.84-7 18.49-17.57 23.45z" fill="#c8c8c8"/><g fill="none"><path stroke="#231f20" stroke-width="21" d="M165.07 140.34h583.11V520.17H168.56M122 114.77c-10.99-4.89-18.33-13.72-18.33-23.8 0-15.4 17.13-27.88 38.25-27.88 21.13 0 38.26 12.48 38.26 27.88 0 9.84-7 18.49-17.57 23.45-5.96 2.8-13.07 4.43-20.69 4.43-7.3 0-14.12-1.49-19.92-4.08z"/><path stroke="#231f20" stroke-width="21" d="M122 114v.77l1.12 670.61M162.61 112.6v672.78"/><path stroke="#231f20" stroke-width="14" d="M744.76 179.39l3.42-1.93 2.01-1.14"/><path stroke="#231f20" stroke-width="7" d="M167.88 470.7H753.75M160 450h588M162 424h586M162 398H752"/><path stroke="#fff" stroke-width="8.056" d="M257 187.58l18.89 34.53L310.42 241l-34.53 18.89L257 294.42l-18.89-34.53L203.58 241l34.53-18.89z"/></g><path fill="none" d="M0 0h850.394v850.394H0z"/></svg>
